X: 15
T: Star Of Munster, The
Z: Edgar Bolton
S: https://thesession.org/tunes/197#setting33702
R: reel
M: 4/4
L: 1/8
K: Ador
|:[cE]BAc [B2D2] GB|AGEF GED2|[A,E]AAG ABcd|[e3A3] e dBGB|
[EA]ccA [B3D3] B|[A2D2] AA GED2|[A,E]AAG ABcd|[c3E3] B [A4E4]:|
|:[eA]aab [Aa]g[eA]e|aebe agef|[g2B2] ga gede|[gB]aba [gB]ede|
[eA]aab [Aa]g[eA]e|aebe agef|[g2B2] gg [a2A2] aa|b2 a2 gede:|

